svgs/sharp-regular/house-lock.svg

<svg xmlns="http://www.w3.org/2000/svg" viewBox="0 0 640 512"><!--! Font Awesome Pro 6.6.0 by @fontawesome - https://fontawesome.com License - https://fontawesome.com/license (Commercial License) Copyright 2024 Fonticons, Inc. --><path d="M303.5 13.7L288 .5 272.5 13.7l-264 224 31.1 36.6L64 253.5 64 488l0 24 24 0 296 0 0-48s0 0 0 0l0-168 0-24-24 0-144 0-24 0 0 24 0 168-80 0 0-251.2L288 63.5 445.1 196.7c11.2-12.3 25-22.1 40.6-28.5L303.5 13.7zM336 464l-96 0 0-144 96 0 0 144zM528 240c17.7 0 32 14.3 32 32l0 48-64 0 0-48c0-17.7 14.3-32 32-32zm-80 32l0 48-32 0 0 192 224 0 0-192-32 0 0-48c0-44.2-35.8-80-80-80s-80 35.8-80 80z"/></svg>

<svg xmlns="http://www.w3.org/2000/svg" viewBox="0 0 640 512"><!--! Font Awesome Pro 6.4.2 by @fontawesome - https://fontawesome.com License - https://fontawesome.com/license (Commercial License) Copyright 2023 Fonticons, Inc. --><path d="M303.5 13.7L288 .5 272.5 13.7l-264 224 31.1 36.6L64 253.5V488v24H88 384l0-48h0V296 272H360 216 192v24V464H112V212.8L288 63.5 445.1 196.7c11.2-12.3 25-22.1 40.6-28.5L303.5 13.7zM336 464H240V320h96V464zM528 240c17.7 0 32 14.3 32 32v48H496V272c0-17.7 14.3-32 32-32zm-80 32v48H416V512H640V320H608V272c0-44.2-35.8-80-80-80s-80 35.8-80 80z"/></svg>
